X:1
T:Title
%%score 1 { ( 2 4 ) | 3 }
L:1/8
Q:1/4=85
M:3/4
K:F
V:1 treble nm="Strings 1, Soprano"
V:2 bass nm="Choir Pad, ’Tis Now in Part"
V:4 bass 
V:3 bass 
V:1
 [A,C][A,F] [CA] [CA]3 | [DB][CA] [B,G] [A,F]3 | [A,F][B,G] [CA] [DB]3 | [DB][CA] [=B,_A] [C=A]3 | %4
w: By~Morton~Bryan~Wharton * * *||||
 [CA][A,F] [FA] [Ec]3 | [_EA][EG] [EF] [DB]3 | [F=B][FB] [FB] [Ec]3 | [DB][CA] [B,G] [A,F]3 | %8
w: ||||
 [CA][A,F] [FA] [EB]3 | [CE][EG] [GB] [FA]3 | [FA][CA] [FA] [Ec]3 | [EB][EG] [E_A] [F=A]3 | %12
w: ||||
 [CA][DF] [FA] [Ac]3 | [Ac][A_e] [Ae] [Fd]3 | [Fd][Fc] [FA][Fc] [EB][FA]- | [FA]2 [EG] F3- | %16
w: ||||
 F4 z2 |] %17
w: |
V:2
 z2 z E,, C,F, | z F, z F,, C,F, | z C z B,, D,F, | z C z F,[K:treble] FF | z C z[K:bass] D, E,G, | %5
 z2 z B,, D,F, | z G, z2 z C | CC G,F, C,F,, | z2 z2[K:treble] CC | CC CC CC | z2 z2 CC | %11
 CC CC CC | z2 z2 FF | FC C[K:bass]B, B,B, | B,A, CA, G,F, | A,C B, A,3- | A,4 z2 |] %17
V:3
 z6 | z F,, z2 z2 | z [C,E,] z2 z2 | z [F,A,] z2 CC | z [F,A,] z2 z2 | z6 | z G,, z2 z G, | %7
 G,[F,A,] E,F,, C,,F,,, | z2 z2 C,C, | C,C, C,F, F,F, | z2 z2 C,C, | C,C, C,F, .A,2 | z2 z2 F,F, | %13
 F,F, F,B,, B,,B,, | F,F, F,C, C,C,- | C,2 C, [F,,F,]3- | [F,,F,]4 z2 |] %17
V:4
 x6 | x6 | x6 | x4[K:treble] x2 | x3[K:bass] x3 | x6 | z2 z C,3- | C,4 z2 | x4[K:treble] x2 | x6 | %10
 x6 | x6 | x6 | x3[K:bass] x3 | x6 | x6 | x6 |] %17

